public/library/solana-breakpoint-icon-dark.svg

<svg width="1396" height="165" viewBox="0 0 1396 165" fill="none" xmlns="http://www.w3.org/2000/svg">
<path d="M167.485 95.9568V159.302C167.485 160.644 166.563 161.584 165.247 161.584H148.392C147.076 161.584 146.154 160.644 146.154 159.302V98.2383C146.154 96.8963 147.076 95.9568 148.392 95.9568H167.353H167.485ZM167.485 95.9568V79.3153H200.667C226.343 79.3153 234.639 68.3104 234.639 50.461C234.639 32.6116 226.211 21.8751 200.667 21.8751H167.485V6.03883C167.485 4.69677 168.407 3.75732 169.723 3.75732H206.855C242.012 3.75732 257.286 24.4251 257.286 49.6558C257.286 74.8865 247.279 87.9045 224.631 93.8095L264.397 158.631C265.319 160.242 264.792 161.315 263.08 161.315H244.514C243.461 161.315 242.539 160.644 241.881 159.705L202.51 95.6884H167.617L167.485 95.9568ZM148.524 79.3153C147.207 79.3153 146.285 78.3759 146.285 77.0338V24.1566C146.285 22.8146 147.207 21.8751 148.524 21.8751H167.485V79.3153H148.524Z" fill="#E7D2F9"/>
<path d="M294.813 72.7392C293.496 72.7392 292.575 71.7998 292.575 70.4577V24.1566C292.575 22.8146 293.496 21.8751 294.813 21.8751H313.774V72.7392H294.813ZM316.013 161.449C314.696 161.449 313.774 160.51 313.774 159.168V143.466H391.988C393.305 143.466 394.227 144.405 394.227 145.747V159.302C394.227 160.644 393.305 161.584 391.988 161.584H316.013V161.449ZM313.906 90.3202V143.466H294.945C293.628 143.466 292.706 142.526 292.706 141.184V92.4675C292.706 91.1254 293.628 90.186 294.945 90.186H313.906V90.3202ZM313.906 90.3202V72.7392H378.821C380.138 72.7392 381.06 73.6786 381.06 75.0207V88.0387C381.06 89.3808 380.138 90.3202 378.821 90.3202H313.906ZM313.906 6.03883C313.906 4.69677 314.828 3.75732 316.144 3.75732H390.013C391.33 3.75732 392.252 4.69677 392.252 6.03883V19.5936C392.252 20.9357 391.33 21.8751 390.013 21.8751H314.038V6.03883H313.906Z" fill="#E7D2F9"/>
<path d="M489.566 3.8916C491.146 3.8916 491.936 4.96525 491.278 6.57572L484.036 26.4382H502.865C503.918 26.4382 504.84 26.8408 505.235 28.1829L553.691 158.765C554.349 160.376 553.428 161.449 551.979 161.449H535.388C534.335 161.449 533.413 161.047 533.018 159.705L517.612 117.564H446.509C445.192 117.564 444.27 116.625 444.27 115.283L457.437 98.641L434.921 159.705C434.526 161.047 433.605 161.449 432.551 161.449H415.96C414.38 161.449 413.59 160.376 414.248 158.765L470.737 5.63628C471.132 4.29422 472.053 3.8916 473.107 3.8916H489.434H489.566ZM457.306 98.641H510.37L483.904 26.5724L457.437 98.641H457.306Z" fill="#E7D2F9"/>
<path d="M577.784 6.03883C577.784 4.69677 578.706 3.75732 580.022 3.75732H596.877C598.193 3.75732 599.115 4.69677 599.115 6.03883V72.4708H580.154C578.837 72.4708 577.916 71.5313 577.916 70.1893V6.03883H577.784ZM663.899 5.3678C664.557 4.42835 665.479 3.75732 666.532 3.75732H685.098C686.81 3.75732 687.337 4.83097 686.415 6.44144L646.649 70.8603C645.991 71.7998 645.069 72.4708 644.016 72.4708H623.211L663.899 5.3678ZM598.983 92.7359V159.168C598.983 160.51 598.062 161.449 596.745 161.449H579.891C578.574 161.449 577.652 160.51 577.652 159.168V95.0174C577.652 93.6753 578.574 92.7359 579.891 92.7359H598.852H598.983ZM598.983 92.7359V72.4708H623.343V92.7359H598.983ZM645.069 92.7359C646.123 92.7359 647.044 93.0043 647.703 94.0779L690.76 158.765C691.682 160.107 691.024 161.449 689.18 161.449H670.351C669.297 161.449 668.376 161.181 667.717 160.107L623.08 92.7359H644.938H645.069Z" fill="#E7D2F9"/>
<path d="M733.81 99.0436V159.168C733.81 160.51 732.888 161.449 731.572 161.449H714.717C713.401 161.449 712.479 160.51 712.479 159.168V101.325C712.479 99.983 713.401 99.0436 714.717 99.0436H733.679H733.81ZM733.81 99.0436V82.402H764.754C790.43 82.402 798.725 72.0682 798.725 51.9373C798.725 31.8064 790.298 21.7409 764.754 21.7409H733.81V6.03883C733.81 4.69677 734.732 3.75732 736.049 3.75732H770.942C806.099 3.75732 821.373 23.754 821.373 51.2662C821.373 78.7785 806.099 99.0436 770.942 99.0436H733.81ZM714.849 82.402C713.532 82.402 712.611 81.4626 712.611 80.1205V24.1566C712.611 22.8146 713.532 21.8751 714.849 21.8751H733.81V82.402H714.849Z" fill="#E7D2F9"/>
<path d="M1233.52 161.449C1232.46 161.449 1231.54 160.778 1230.88 159.839L1136.47 6.57565C1135.55 4.96518 1136.08 3.89153 1137.79 3.89153H1157.67C1158.72 3.89153 1159.65 4.56256 1160.3 5.502L1254.71 158.899C1255.64 160.51 1255.11 161.584 1253.4 161.584H1233.52V161.449ZM1138.05 161.449C1136.74 161.449 1135.81 160.51 1135.81 159.168V42.8113C1135.81 41.4692 1136.74 40.5298 1138.05 40.5298H1157.01V159.168C1157.01 160.51 1156.09 161.449 1154.77 161.449H1137.92H1138.05ZM1233.91 6.70986C1233.91 4.96518 1234.83 3.75732 1236.15 3.75732H1253C1254.32 3.75732 1255.24 4.96518 1255.24 6.70986V159.839C1255.24 161.584 1254.32 161.449 1253 161.449H1234.04V6.70986H1233.91Z" fill="#E7D2F9"/>
<path d="M1329.5 161.449C1328.19 161.449 1327.27 160.51 1327.27 159.168V21.8751H1348.47V159.302C1348.47 160.644 1347.54 161.584 1346.23 161.584H1329.37L1329.5 161.449ZM1281.97 21.8751C1280.65 21.8751 1279.73 20.9357 1279.73 19.5936V6.03883C1279.73 4.69677 1280.65 3.75732 1281.97 3.75732H1325.03C1326.34 3.75732 1327.27 4.69677 1327.27 6.03883V21.7409H1281.97V21.8751ZM1348.47 6.03883C1348.47 4.69677 1349.39 3.75732 1350.7 3.75732H1393.76C1395.08 3.75732 1396 4.69677 1396 6.03883V19.5936C1396 20.9357 1395.08 21.8751 1393.76 21.8751H1348.47V6.03883Z" fill="#E7D2F9"/>
<path d="M916.709 164.939C870.755 164.939 842.84 130.985 842.84 82.5367C842.84 34.0883 870.755 0 916.709 0C962.664 0 990.578 33.9541 990.578 82.4025C990.578 130.851 962.795 164.805 916.709 164.805V164.939ZM916.709 146.419C949.364 146.419 967.93 120.114 967.93 82.4025C967.93 44.6906 949.364 18.3862 916.709 18.3862C884.054 18.3862 865.488 44.6906 865.488 82.4025C865.488 120.114 884.054 146.419 916.709 146.419Z" fill="#E7D2F9"/>
<path d="M1063.52 130.314C1063.52 131.656 1062.6 132.596 1061.29 132.596H1044.43C1043.12 132.596 1042.19 131.656 1042.19 130.314V22.547H1063.39V130.449L1063.52 130.314ZM1094.47 4.4292C1095.78 4.4292 1096.71 5.36864 1096.71 6.7107V20.2655C1096.71 21.6076 1095.78 22.547 1094.47 22.547H1063.52V6.7107C1063.52 5.36864 1064.45 4.4292 1065.76 4.4292H1094.47ZM1040.09 4.4292C1041.4 4.4292 1042.33 5.36864 1042.33 6.7107V22.4128H1011.38C1010.07 22.4128 1009.14 21.4734 1009.14 20.1313V6.7107C1009.14 5.36864 1010.07 4.4292 1011.38 4.4292H1040.09Z" fill="#E7D2F9"/>
<path d="M1042.33 34.8938C1042.33 33.5517 1043.25 32.6123 1044.56 32.6123H1061.42C1062.73 32.6123 1063.66 33.5517 1063.66 34.8938V142.795H1042.46V34.8938H1042.33ZM1011.38 160.779C1010.07 160.779 1009.14 159.84 1009.14 158.498V144.943C1009.14 143.601 1010.07 142.661 1011.38 142.661H1042.33V158.363C1042.33 159.705 1041.4 160.645 1040.09 160.645H1011.38V160.779ZM1065.76 160.779C1064.45 160.779 1063.52 159.84 1063.52 158.498V142.795H1094.47C1095.78 142.795 1096.71 143.735 1096.71 145.077V158.632C1096.71 159.974 1095.78 160.913 1094.47 160.913H1065.76V160.779Z" fill="#E7D2F9"/>
<path d="M23.6622 159.955C22.3329 159.955 21.4024 159.024 21.4024 157.695V142.141H57.2945C88.534 142.141 94.1172 128.715 94.1172 115.156C94.1172 101.597 88.534 87.5057 57.2945 87.5057H21.4024V70.4901H58.4909C79.8932 70.4901 86.1411 56.3991 86.1411 45.4986C86.1411 34.598 79.8932 21.5705 58.4909 21.5705H21.4024V6.0172C21.4024 4.68786 22.3329 3.75732 23.6622 3.75732H61.1496C96.6429 3.75732 109.803 25.4255 109.803 45.8974C109.803 62.7892 104.28 70.4921 89.4645 76.8709V77.2697C112.063 83.5176 117.514 99.8685 117.514 114.491C117.514 137.755 103.688 159.822 58.8897 159.822H23.6622V159.955ZM2.25988 70.4901C0.930537 70.4901 0 69.5596 0 68.2302V23.9633C0 22.6339 0.930537 21.7034 2.25988 21.7034H21.4024V70.6231H2.25988V70.4901ZM2.25988 142.141C0.930537 142.141 0 141.211 0 139.882V89.6326C0 88.3033 0.930537 87.3727 2.25988 87.3727H21.4024V142.009H2.25988V142.141Z" fill="#E7D2F9"/>
</svg>

<svg xmlns="http://www.w3.org/2000/svg" width="1396" height="165" fill="none" viewBox="0 0 1396 165"><path fill="#e7d2f9" d="M167.485 95.957v63.345c0 1.342-.922 2.282-2.238 2.282h-16.855c-1.316 0-2.238-.94-2.238-2.282V98.238c0-1.342.922-2.281 2.238-2.281h19.093m0 0V79.315h33.182c25.676 0 33.972-11.005 33.972-28.854 0-17.85-8.428-28.586-33.972-28.586h-33.182V6.04c0-1.342.922-2.282 2.238-2.282h37.132c35.157 0 50.431 20.668 50.431 45.899 0 25.23-10.007 38.249-32.655 44.154l39.766 64.821c.922 1.611.395 2.684-1.317 2.684h-18.566c-1.053 0-1.975-.671-2.633-1.61L202.51 95.688h-34.893zm-18.961-16.642c-1.317 0-2.239-.94-2.239-2.281V24.157c0-1.342.922-2.282 2.239-2.282h18.961v57.44zM294.813 72.74c-1.317 0-2.238-.94-2.238-2.282V24.157c0-1.342.921-2.282 2.238-2.282h18.961V72.74zm21.2 88.709c-1.317 0-2.239-.939-2.239-2.281v-15.702h78.214c1.317 0 2.239.939 2.239 2.281v13.555c0 1.342-.922 2.282-2.239 2.282h-75.975zm-2.107-71.129v53.146h-18.961c-1.317 0-2.239-.94-2.239-2.282V92.468c0-1.343.922-2.282 2.239-2.282h18.961zm0 0V72.74h64.915c1.317 0 2.239.939 2.239 2.28V88.04c0 1.342-.922 2.281-2.239 2.281zm0-84.281c0-1.342.922-2.282 2.238-2.282h73.869c1.317 0 2.239.94 2.239 2.282v13.555c0 1.342-.922 2.281-2.239 2.281h-75.975V6.04zM489.566 3.892c1.58 0 2.37 1.073 1.712 2.684l-7.242 19.862h18.829c1.053 0 1.975.403 2.37 1.745l48.456 130.582c.658 1.611-.263 2.684-1.712 2.684h-16.591c-1.053 0-1.975-.402-2.37-1.744l-15.406-42.141h-71.103c-1.317 0-2.239-.939-2.239-2.281l13.167-16.642-22.516 61.064c-.395 1.342-1.316 1.744-2.37 1.744H415.96c-1.58 0-2.37-1.073-1.712-2.684L470.737 5.636c.395-1.342 1.316-1.744 2.37-1.744h16.459m-32.26 94.749h53.064l-26.466-72.069-26.467 72.069zM577.784 6.039c0-1.342.922-2.282 2.238-2.282h16.855c1.316 0 2.238.94 2.238 2.282V72.47h-18.961c-1.317 0-2.238-.94-2.238-2.282V6.04zm86.115-.671c.658-.94 1.58-1.61 2.633-1.61h18.566c1.712 0 2.239 1.073 1.317 2.683l-39.766 64.42c-.658.939-1.58 1.61-2.633 1.61h-20.805zm-64.916 87.368v66.432c0 1.342-.921 2.281-2.238 2.281h-16.854c-1.317 0-2.239-.939-2.239-2.281v-64.15c0-1.343.922-2.282 2.239-2.282h19.092m0 0V72.47h24.36v20.265zm46.086 0c1.054 0 1.975.268 2.634 1.342l43.057 64.687c.922 1.342.264 2.684-1.58 2.684h-18.829c-1.054 0-1.975-.268-2.634-1.342L623.08 92.736h21.989M733.81 99.044v60.124c0 1.342-.922 2.281-2.238 2.281h-16.855c-1.316 0-2.238-.939-2.238-2.281v-57.843c0-1.342.922-2.281 2.238-2.281h19.093m0 0V82.402h30.944c25.676 0 33.971-10.334 33.971-30.465 0-20.13-8.427-30.196-33.971-30.196H733.81V6.039c0-1.342.922-2.282 2.239-2.282h34.893c35.157 0 50.431 19.997 50.431 47.51 0 27.511-15.274 47.777-50.431 47.777zm-18.961-16.642c-1.317 0-2.238-.94-2.238-2.281V24.157c0-1.342.921-2.282 2.238-2.282h18.961v60.527zM1233.52 161.449c-1.06 0-1.98-.671-2.64-1.61L1136.47 6.576c-.92-1.61-.39-2.684 1.32-2.684h19.88c1.05 0 1.98.67 2.63 1.61l94.41 153.397c.93 1.611.4 2.685-1.31 2.685h-19.88zm-95.47 0c-1.31 0-2.24-.939-2.24-2.281V42.811c0-1.342.93-2.281 2.24-2.281h18.96v118.638c0 1.342-.92 2.281-2.24 2.281h-16.85zm95.86-154.74c0-1.744.92-2.952 2.24-2.952H1253c1.32 0 2.24 1.208 2.24 2.953v153.129c0 1.745-.92 1.61-2.24 1.61h-18.96V6.709zM1329.5 161.449c-1.31 0-2.23-.939-2.23-2.281V21.875h21.2v137.427c0 1.342-.93 2.282-2.24 2.282h-16.86zm-47.53-139.574c-1.32 0-2.24-.94-2.24-2.281V6.039c0-1.342.92-2.282 2.24-2.282h43.06c1.31 0 2.24.94 2.24 2.282V21.74h-45.3zm66.5-15.836c0-1.342.92-2.282 2.23-2.282h43.06c1.32 0 2.24.94 2.24 2.282v13.555c0 1.342-.92 2.281-2.24 2.281h-45.29zM916.709 164.939c-45.954 0-73.869-33.954-73.869-82.402S870.755 0 916.709 0s73.869 33.954 73.869 82.403c0 48.448-27.783 82.402-73.869 82.402zm0-18.52c32.655 0 51.221-26.305 51.221-64.017s-18.566-64.016-51.221-64.016-51.221 26.305-51.221 64.017 18.566 64.016 51.221 64.016M1063.52 130.314c0 1.342-.92 2.282-2.23 2.282h-16.86c-1.31 0-2.24-.94-2.24-2.282V22.547h21.2v107.902zm30.95-125.885c1.31 0 2.24.94 2.24 2.282v13.555c0 1.342-.93 2.281-2.24 2.281h-30.95V6.711c0-1.342.93-2.282 2.24-2.282zm-54.38 0c1.31 0 2.24.94 2.24 2.282v15.702h-30.95c-1.31 0-2.24-.94-2.24-2.282V6.711c0-1.342.93-2.282 2.24-2.282z"/><path fill="#e7d2f9" d="M1042.33 34.894c0-1.342.92-2.282 2.23-2.282h16.86c1.31 0 2.24.94 2.24 2.282v107.901h-21.2V34.894zm-30.95 125.885c-1.31 0-2.24-.939-2.24-2.281v-13.555c0-1.342.93-2.282 2.24-2.282h30.95v15.702c0 1.342-.93 2.282-2.24 2.282h-28.71zm54.38 0c-1.31 0-2.24-.939-2.24-2.281v-15.703h30.95c1.31 0 2.24.94 2.24 2.282v13.555c0 1.342-.93 2.281-2.24 2.281h-28.71zM23.662 159.955c-1.33 0-2.26-.931-2.26-2.26v-15.554h35.893c31.239 0 36.822-13.426 36.822-26.985s-5.583-27.65-36.823-27.65H21.402V70.49h37.089c21.402 0 27.65-14.09 27.65-24.991S79.893 21.57 58.491 21.57H21.402V6.017c0-1.33.93-2.26 2.26-2.26H61.15c35.493 0 48.653 21.668 48.653 42.14 0 16.892-5.523 24.595-20.338 30.974v.399c22.598 6.248 28.049 22.599 28.049 37.221 0 23.264-13.826 45.331-58.624 45.331H23.662zM2.26 70.49C.93 70.49 0 69.56 0 68.23V23.963c0-1.33.93-2.26 2.26-2.26h19.142v48.92H2.26zm0 71.651c-1.33 0-2.26-.93-2.26-2.259v-50.25c0-1.329.93-2.26 2.26-2.26h19.142v54.637H2.26z"/></svg>
